X:385
T: Martin Ansboro's
S: "Play 50 Reels" (Armagh Pipers' Club)
Z: B.Black
L: 1/8
M: 4/4
R: reel
K: Edor
e3 d BAFA|d2 fd adfd|e3 d BAFA|1 fbba feed :|2\
fbba fe e2||
be (3gfe be (3gfe|adfd adfd|be (3gfe be (3gfe|\
afde fe e2 :|
